X:1
T:Regina coeli - Anerio
T:#
%%score [ 1 2 3 4 ]
L:1/8
Q:1/4=120
M:none
K:F
V:1 treble nm="Soprano" snm="S"
V:2 treble nm="Alto" snm="A"
V:3 treble-8 nm="Tenor" snm="T"
V:4 bass nm="Bass" snm="B"
V:1
 x12 ||"^Regina Coeli""^Felice Anerio\n(c. 1560-1614)"[Q:1/4=200] B8 A8 | G8 B8- | %3
w: |Lae- ta-|re, Al\-|
 B4 A4 (G2 F2 F4- | F4 E4) F8 | z8 A8 | A16 | %7
w: * le- lu\- * *|* * ia.|Qui-|a|
[M:4/2][Q:1/4=200][Q:1/4=200][Q:1/4=200][Q:1/4=200] z16 | ^F8 G4 A4 | B8 A8 | z8 (B8 | G8) (B8 | %12
w: |quem me- ru-|i- sti|por\-|* ta\-|
 c8) F8- | F16 | z8 z4 d4 | =B4 ^c4 d8 | z8 z4 D4 | F4 G4 A4 A4 | B4 (G6 F2 F4- | F4 E4) F8- | %20
w: * re,||Al-|le- lu- ia,|al-|le- lu- ia, al-|le- lu\- * *|* * ia.|
 F8 c2 B2 A2 A2 | d2 c2 B2 A2 d2 c2 B4 | A4 z2 c2 (FGAB c2) A2 | d4 G4 (CDEF G2) G2 | %24
w: * Re- sur- re- xit|si- cut di- xit, si- cut di-|xit. Al- le\- * * * * lu-|ia, al- le\- * * * * lu-|
 A2 c2 =B2 B2 c2 G2 G2 G2 | G8 z4 G4- | G4 A8 F4- | F4 (B6 A2 G4) | (F2 G2 A2 F2 G4) (F4- | %29
w: ia, al- le- l- ia, al- le- lu-|ia. O\-|* ra pro|* no\- * *|bis * * * * De\-|
 F4 E4) F4 c4 | c4 B4 A8 | z8 z4 A4 | c4 c4 d8 | z16 | z8 B8 | A4 G4 B4 d4 | d4 c4 B4 A4 | %37
w: * * um. Al-|le- lu- ia,|al-|le- lu- ia,||al-|le- lu- ia, al-|le- lu- ia, al-|
 A4[Q:1/4=197] G4[Q:1/4=194] (F2[Q:1/4=192] G2[Q:1/4=189] A2[Q:1/4=187] B2 | %38
w: le- lu- ia, * * *|
[Q:1/4=184] c4)[Q:1/4=180] c4[Q:1/4=175] c6[Q:1/4=170] B2 |[Q:1/4=170] A16 |] %40
w: * al- le- lu-|ia.|
V:2
 x12 || F16 | E8 D8 | F6 E2 D8 | C16 | z8 F8 | F16 |[M:4/2] z8 D8- | D8 E4 ^F4 | G8 ^F4 (=F4- | %10
w: |Lae-|ta- re,|Al- le- lu-|ia.|Qui-|a|quem|* me- ru-|i- sti, por\-|
 F4 D8) B,4- | B,4 (G,6 A,2 B,4) | (_E8 D8) | C8 D8 | z8 F8 | G4 E4 F4 D4 | B,4 C4 D4 F4 | %17
w: * * ta|* re, * *|por\- *|ta- re,|Al-|le- lu- ia, al-|le- lu- ia, al-|
 D4 E4 (F8- | F4 E2 D2 C8- | C16) | z8 F2 D2 F4 | F4 F6 F2 F4 | F4 F4 D2 D2 C4 | %23
w: le- lu- ia.|||Re- sur- re-|xit si- cut di-|xit. Al- le- lu- ia,|
 z4 C4 A,2 A,2 G,2 G,2 | (CDEF G3 F E4) D4 | E16- | E8 z8 | z4 F4 B,4 C4 | D4 F4 D8 | C8 z4 F4 | %30
w: al- le- lu- ia, al-|le\- * * * * * * lu-|ia.||O- ra pro|no- bis De-|um. Al-|
 E4 D4 F8 | z8 F8 | F4 E4 D8 | z8 F8 | F4 E4 D8 | z8 z4 D4 | F4 F4 G4 (F4- | F2 E2 D2 C2 D4) F4 | %38
w: le- lu- ia,|al-|le- lu- ia,|al-|le- lu- ia,|al-|le- lu- ia, al\-|* * * * * le-|
 (E4 F8 E4) | F16 |] %40
w: lu\- * *|ia.|
V:3
 x12 || d8 c8- | c8 B8 | z8 B6 A2 | G8 F8 | (F8 c8) | c8 d8 |[M:4/2][K:treble-8] c4 A4 B8 | %8
w: |Lae- ta\-|* re,|Al- le-|lu- ia.|Qui\- *|a quem|me- ru- i-|
 A4 d4 c4 A4 | G8 d8- | d8 z8 | z4 (B8 G4- | G4) (c6 B2 B4- | B4 A4) B4 d4 | _e4 c4 d8 | z8 z4 B4 | %16
w: sti, quem me- ru-|i- sti||por\- *|* ta\- * *|* * re, Al-|le- lu- ia,|al-|
 G4 A4 (B8- | B4 A2 G2 F4) c4 | B8 (A6 GF | G8) F8 | z8 A2 B2 c2 A2 | B2 c2 d2 c2 B2 c2 d4 | %22
w: le- lu- ia,|* * * * al-|le- lu\- * *|* ia.|Re- sur- re- xit|si- cut di- xit, si- cut di-|
 c8 z4 z2 c2 | (FGAF G2) E2 (F2 ED E4) | z2 A2 D2 d2 G2 c2 =B2 B2 | c8 c8- | c8 F8- | F8 G8 | %28
w: xit. Al-|le\- * * * * lu- ia, * * *|al- le- lu- ia, al- le- lu-|ia, O\-|* ra|* pro-|
 A8 B8 | G8 F8 | z8 z4 c4 | c4 B4 A8 | z8 z4 F4 | A4 A4 B8 | z8 z4 d4 | c4 _e4 d8 | z8 d8 | %37
w: no- bis|De- um.|Al-|le- lu- ia,|al-|le- lu- ia,|al-|le- lu- ia,|al-|
 c4 B4 A4 A4 | A8 G8 | F16 |] %40
w: le- lu- ia, al-|le- lu-|ia.|
V:4
 F,2 G,2 F,2 G,2 A,4 || B,,8 F,8 | C,8 G,8 | D,8 (B,,8 | C,8) F,,8 | z8 F,8 | F,8 z4 D,4 | %7
w: Re- gi- na coe- li|Lae- ta-|re, Al-|le- lu\-|* ia.|Qui-|a quem|
[M:4/2] E,4 ^F,4 G,8 | D,8 z8 | z16 | (B,8 G,8) | (_E,6 F,2 G,8 | C,8) (D,6 _E,2 | F,8) z4 B,4 | %14
w: me- ru- i-|sti||por\- *|ta\- * *|* re, *|* Al-|
 G,4 A,4 B,8 | z8 D,8 | _E,4 C,4 B,,8 | z8 z4 F,4 | D,4 E,4 (F,6 E,D, | C,8 F,,8) | %20
w: le- lu- ia,|al-|le- lu- ia,|al-|le- lu- ia. * *||
 z8 F,2 G,2 A,2 F,2 | B,2 A,2 B,2 F,2 B,,2 A,,2 B,,4 | F,8 z4 F,4 | D,2 D,2 C,4 z4 C,4 | %24
w: Re- sur- re- xit|si- cut di- xit, si- cut di-|xit. Al-|le- lu- ia, al-|
 A,,2 A,,2 G,,2 G,,2 (C,D,E,F, G,2) G,2 | C,16 | C,8 D,8 | B,,8 _E,8 | D,8 (B,,8 | C,8) F,,8 | %30
w: le- lu- ia, al- le\- * * * * lu-|ia.|O- ra|pro no-|bis De\-|* um.|
 z8 F,8 | E,4 D,4 F,8 | z8 D,8 | D,4 C,4 B,,4 B,4 | A,4 G,4 B,8 | z8 B,8 | B,4 A,4 G,4 D,4 | %37
w: Al-|le- lu- ia,|al-|le- lu- ia, al-|le- lu- ia,|al-|le- lu- ia, al-|
 F,4 G,4 D,8 | A,,8 C,4 C,4 | F,,16 |] %40
w: le- lu- ia,|al- le- lu-|ia.|

